vsi/telescope_light.svg

<svg viewBox="0 0 16 16" fill="none" xmlns="http://www.w3.org/2000/svg" height="1em" width="1em">
  <path fill-rule="evenodd" clip-rule="evenodd" d="M11.2402 1L11.8302 1.24L13.9402 6.17L13.7102 6.76L10.4202 8.17L9.83024 7.93L9.66024 7.52L6.10024 9L5.52024 8.81L5.36024 8.43L2.80024 9.49L2.22024 9.25L1.50024 7.58L1.78024 6.99L4.28024 5.93L4.10024 5.52L4.34024 4.94L7.90024 3.41L7.72024 3L8.00024 2.42L11.2402 1ZM2.50024 7.64L2.85024 8.49L5.07024 7.58L4.70024 6.73L2.50024 7.64ZM5.24024 5.52L6.35024 7.97L9.35024 6.69L8.24024 4.25L5.24024 5.52ZM8.79024 3L10.6502 7.11L12.9402 6.1L11.1802 2L8.72024 3H8.79024ZM8.50026 9.09998L11.5203 14H10.3503L8.47025 10.97V14.97H7.47025V9.81997L5.58026 14H4.48026L6.18025 10.1L8.50026 9.09998Z" fill="#424242"/>
</svg>

<svg viewBox="0 0 16 16" fill="none" xmlns="http://www.w3.org/2000/svg" height="1em" width="1em">
  <path fill-rule="evenodd" clip-rule="evenodd" d="m11.24 1 .59.24 2.11 4.93-.23.59-3.29 1.41-.59-.24-.17-.41L6.1 9l-.58-.19-.16-.38L2.8 9.49l-.58-.24-.72-1.67.28-.59 2.5-1.06-.18-.41.24-.58L7.9 3.41 7.72 3 8 2.42 11.24 1ZM2.5 7.64l.35.85 2.22-.91-.37-.85-2.2.91Zm2.74-2.12 1.11 2.45 3-1.28-1.11-2.44-3 1.27ZM8.79 3l1.86 4.11 2.29-1.01L11.18 2 8.72 3h.07ZM8.5 9.1l3.02 4.9h-1.17l-1.88-3.03v4h-1V9.82L5.58 14h-1.1l1.7-3.9 2.32-1Z" fill="#424242"/>
</svg>
